X:34
T:The cat that ate the candle
R:Reel
D:Altan, The First Ten Years, 10a
S:Larry MacDonagh, Ballinafad, Co. Sligo (?)
S:IrTrad
Z:Transcription:Jerome Colburn, chords:Mike Long
M:C|
L:1/8
K:D
B|:\
"Em"EB~B2 BABc|"D"d2AF DEFD|"A"EA~A2 BAGF|[1 "C"GBAF GEED:|[2 "C"GBAF GEE2|]
"Em"Be~e2 Begb|"D"afge fdd2|"A"eBdB "C"=cBAF|[1 "C"GBAF GEED:|[2 "C"GBAF GEE |]
